X:1
T:Title
%%score { ( 1 3 ) | 2 }
L:1/8
Q:1/4=104
M:4/4
K:Eb
V:1 treble nm="Grand Piano"
V:3 treble 
V:2 bass 
V:1
 [GB]>[GB] [GB]>[GB] [Ge]2 [Ac]2 | [GB]2 G4 G>F | E2 G2 [EGc]2 [B,_DG]2 | [B,DA]6 z2 | %4
w: Charles~H.~Gabriel * * * * *||||
 [DFA]>[EA] [DFA]>[CEA] [Ad]2 [DAc]2 | [DAc]2 [DF]4 [DF]>[FA] | G2 B2 =A2 c2 |[M:3/4] [DB]6 | %8
w: ||||
[M:1/4] c>d |[M:4/4] [Ge]6 z2 | B6 z2 | [GB]2 [Ge]>[Gd] [Gc]2 [EB]2 | d6 z2 | [Ge]6 z2 | B6 z2 | %15
w: |||||||
 B3 B [Ad]2 c>B | [Ge]6 z2 |] %17
w: ||
V:2
 [E,E]>[E,E] [E,E]>[E,E] [E,B,]2 [E,E]2 | [E,E]2 [E,B,E]4 [E,B,E]>[E,A,E] | %2
 [E,G,]2 [E,B,E]2 E,2 =E,2 | F,6 z2 | B,,>B,, B,,>B,, [B,,B,]2 B,,2 | %5
 B,,2 [B,,B,]4 [B,,B,]>[B,,B,] | [E,B,E]2 [E,G,E]2 [F,E]2 [F,=A,E]2 |[M:3/4] [B,,B,]6 | %8
[M:1/4][K:treble] [B,DA]>[B,A] |[M:4/4][K:bass] [E,B,]2 E,>E, E,>[E,CE] [E,B,E]>[E,A,E] | %10
 [E,G,E]2 [F,B,]2 [G,B,]>[G,B,E] [E,B,E]>[E,B,] | [E,E]2 [E,B,]>[E,B,] [E,E]2 [G,B,]2 | %12
 [F,B,]2 [B,,B,]2 B,2[K:treble] [B,DA]>[B,A] | [E,B,]2 E,>E, E,>[E,CE] [E,B,E]>[E,A,E] | %14
 [E,G,E]2 [F,A,]2 [G,B,]2[K:treble] [A,E]2 | [B,EG]3[K:bass] [G,E] [F,B,]2[K:treble] [B,A]>[B,A] | %16
 [E,B,]6 z2 |] %17
V:3
 x8 | x8 | x8 | x8 | x8 | x8 | x8 |[M:3/4] x6 |[M:1/4] x2 |[M:4/4] z2 B,>B, B,>e d>c | %10
 z2 D2 E>B G>[FA] | x8 | A2 A2 A2 c>d | z2 B,>B, B,>e d>c | z2 D2 E2 c2 | x8 | x8 |] %17

